logos/bigibrand/bigibrand.svg

<svg width="185" height="39" viewBox="0 0 185 39" fill="none" xmlns="http://www.w3.org/2000/svg">
<path d="M0.985719 29.6339C0.696575 29.6339 0.460002 29.5419 0.276001 29.3579C0.0920002 29.1739 0 28.9374 0 28.6482V3.01953C0 2.73039 0.0920002 2.49381 0.276001 2.30981C0.460002 2.12581 0.696575 2.03381 0.985719 2.03381H12.6961C14.8778 2.03381 16.6652 2.34924 18.0584 2.9801C19.4515 3.61096 20.4767 4.50468 21.1338 5.66126C21.8172 6.81784 22.159 8.17156 22.159 9.72242C22.159 10.695 21.975 11.5493 21.607 12.2853C21.2652 13.0213 20.8315 13.6259 20.3058 14.099C19.8064 14.5722 19.3201 14.927 18.8469 15.1636C19.8721 15.6367 20.7658 16.4253 21.5281 17.5293C22.3167 18.607 22.711 19.895 22.711 21.3933C22.711 23.0493 22.343 24.4951 21.607 25.7305C20.871 26.9659 19.7801 27.9254 18.3344 28.6088C16.8886 29.2922 15.1275 29.6339 13.0509 29.6339H0.985719ZM6.26917 25.0208H12.3018C13.5898 25.0208 14.5624 24.6659 15.2195 23.9562C15.8766 23.2202 16.2052 22.3528 16.2052 21.3539C16.2052 20.3288 15.8635 19.4745 15.1801 18.791C14.5229 18.0813 13.5635 17.7265 12.3018 17.7265H6.26917V25.0208ZM6.26917 13.1921H11.9469C13.1823 13.1921 14.1023 12.8899 14.7069 12.2853C15.3378 11.6544 15.6532 10.8527 15.6532 9.88013C15.6532 8.90756 15.3378 8.13213 14.7069 7.55384C14.1023 6.94926 13.1823 6.64698 11.9469 6.64698H6.26917V13.1921Z" fill="black"/>
<path d="M28.1204 29.6339C27.8575 29.6339 27.6341 29.5419 27.4501 29.3579C27.2661 29.1739 27.1741 28.9374 27.1741 28.6482V10.1167C27.1741 9.82756 27.2661 9.59099 27.4501 9.40699C27.6341 9.22299 27.8575 9.13099 28.1204 9.13099H32.0633C32.3524 9.13099 32.589 9.22299 32.773 9.40699C32.957 9.59099 33.049 9.82756 33.049 10.1167V28.6482C33.049 28.9374 32.957 29.1739 32.773 29.3579C32.589 29.5419 32.3524 29.6339 32.0633 29.6339H28.1204ZM28.0021 5.97669C27.7393 5.97669 27.5158 5.88469 27.3318 5.70069C27.1478 5.51669 27.0558 5.28011 27.0558 4.99097V1.83667C27.0558 1.54753 27.1478 1.31095 27.3318 1.12695C27.5158 0.916667 27.7393 0.811523 28.0021 0.811523H32.1421C32.4313 0.811523 32.6678 0.916667 32.8518 1.12695C33.0621 1.31095 33.1673 1.54753 33.1673 1.83667V4.99097C33.1673 5.28011 33.0621 5.51669 32.8518 5.70069C32.6678 5.88469 32.4313 5.97669 32.1421 5.97669H28.0021Z" fill="black"/>
<path d="M47.6145 38.3083C45.6694 38.3083 44.0528 38.0454 42.7648 37.5197C41.4768 37.0203 40.4516 36.4025 39.6893 35.6665C38.9533 34.9568 38.4276 34.2471 38.1122 33.5374C37.7968 32.8277 37.6259 32.2757 37.5996 31.8814C37.5733 31.5922 37.6653 31.3557 37.8756 31.1717C38.0859 30.9877 38.3225 30.8957 38.5853 30.8957H42.8042C43.0408 30.8957 43.2379 30.9482 43.3957 31.0534C43.5797 31.1848 43.7242 31.3951 43.8294 31.6842C43.9608 31.9997 44.1448 32.3282 44.3814 32.67C44.6179 33.038 44.9728 33.3402 45.4459 33.5768C45.9454 33.8134 46.6025 33.9317 47.4174 33.9317C48.3374 33.9317 49.0997 33.8002 49.7043 33.5374C50.3088 33.2745 50.7557 32.8277 51.0448 32.1968C51.3603 31.5659 51.518 30.7117 51.518 29.6339V26.9922C50.8871 27.6756 50.0854 28.2408 49.1128 28.6877C48.1665 29.1345 46.9968 29.3579 45.6037 29.3579C44.2368 29.3579 43.0277 29.1477 41.9762 28.7271C40.9511 28.2802 40.0968 27.6625 39.4133 26.8739C38.7299 26.0591 38.2042 25.0865 37.8362 23.9562C37.4682 22.8259 37.2579 21.551 37.2053 20.1316C37.1791 19.4219 37.1791 18.7253 37.2053 18.0419C37.2579 16.675 37.4682 15.4264 37.8362 14.2962C38.2042 13.1659 38.7299 12.1933 39.4133 11.3784C40.0968 10.5373 40.9511 9.89328 41.9762 9.44642C43.0277 8.97327 44.2368 8.7367 45.6037 8.7367C47.0494 8.7367 48.2848 9.0127 49.31 9.56471C50.3351 10.1167 51.1763 10.8001 51.8334 11.615V10.1167C51.8334 9.85385 51.9254 9.63042 52.1094 9.44642C52.2934 9.23613 52.5168 9.13099 52.7797 9.13099H56.6437C56.9066 9.13099 57.13 9.23613 57.314 9.44642C57.5243 9.63042 57.6294 9.85385 57.6294 10.1167L57.6689 29.0819C57.6689 31.0534 57.2877 32.7225 56.5254 34.0894C55.7631 35.4563 54.6328 36.4945 53.1346 37.2043C51.6625 37.9403 49.8225 38.3083 47.6145 38.3083ZM47.4174 24.7448C48.3637 24.7448 49.126 24.5345 49.7043 24.1139C50.3088 23.6671 50.7557 23.1151 51.0448 22.4579C51.334 21.7745 51.4917 21.0648 51.518 20.3288C51.5443 20.0396 51.5574 19.6322 51.5574 19.1065C51.5574 18.5545 51.5443 18.1339 51.518 17.8447C51.4917 17.1087 51.334 16.4122 51.0448 15.755C50.7557 15.0716 50.3088 14.5196 49.7043 14.099C49.126 13.6784 48.3637 13.4682 47.4174 13.4682C46.4185 13.4682 45.63 13.6916 45.0517 14.1384C44.4734 14.559 44.0528 15.1242 43.7899 15.8339C43.5271 16.5436 43.3694 17.319 43.3168 18.1602C43.2905 18.791 43.2905 19.4087 43.3168 20.0133C43.3694 20.8808 43.5271 21.6693 43.7899 22.379C44.0528 23.0888 44.4734 23.6671 45.0517 24.1139C45.63 24.5345 46.4185 24.7448 47.4174 24.7448Z" fill="black"/>
<path d="M63.5832 29.6339C63.3203 29.6339 63.0969 29.5419 62.9129 29.3579C62.7289 29.1739 62.6369 28.9374 62.6369 28.6482V10.1167C62.6369 9.82756 62.7289 9.59099 62.9129 9.40699C63.0969 9.22299 63.3203 9.13099 63.5832 9.13099H67.526C67.8152 9.13099 68.0518 9.22299 68.2358 9.40699C68.4198 9.59099 68.5118 9.82756 68.5118 10.1167V28.6482C68.5118 28.9374 68.4198 29.1739 68.2358 29.3579C68.0518 29.5419 67.8152 29.6339 67.526 29.6339H63.5832ZM63.4649 5.97669C63.202 5.97669 62.9786 5.88469 62.7946 5.70069C62.6106 5.51669 62.5186 5.28011 62.5186 4.99097V1.83667C62.5186 1.54753 62.6106 1.31095 62.7946 1.12695C62.9786 0.916667 63.202 0.811523 63.4649 0.811523H67.6049C67.894 0.811523 68.1306 0.916667 68.3146 1.12695C68.5249 1.31095 68.6301 1.54753 68.6301 1.83667V4.99097C68.6301 5.28011 68.5249 5.51669 68.3146 5.70069C68.1306 5.88469 67.894 5.97669 67.6049 5.97669H63.4649Z" fill="black"/>
<path d="M74.8761 29.6339C74.587 29.6339 74.3504 29.5419 74.1664 29.3579C73.9824 29.1739 73.8904 28.9374 73.8904 28.6482V3.01953C73.8904 2.73039 73.9824 2.49381 74.1664 2.30981C74.3504 2.12581 74.587 2.03381 74.8761 2.03381H86.5865C88.7682 2.03381 90.5556 2.34924 91.9488 2.9801C93.3419 3.61096 94.3671 4.50468 95.0242 5.66126C95.7076 6.81784 96.0494 8.17156 96.0494 9.72242C96.0494 10.695 95.8654 11.5493 95.4974 12.2853C95.1556 13.0213 94.7219 13.6259 94.1962 14.099C93.6968 14.5722 93.2105 14.927 92.7373 15.1636C93.7625 15.6367 94.6562 16.4253 95.4185 17.5293C96.2071 18.607 96.6014 19.895 96.6014 21.3933C96.6014 23.0493 96.2334 24.4951 95.4974 25.7305C94.7614 26.9659 93.6705 27.9254 92.2248 28.6088C90.7791 29.2922 89.0179 29.6339 86.9413 29.6339H74.8761ZM80.1596 25.0208H86.1922C87.4802 25.0208 88.4528 24.6659 89.1099 23.9562C89.767 23.2202 90.0956 22.3528 90.0956 21.3539C90.0956 20.3288 89.7539 19.4745 89.0705 18.791C88.4133 18.0813 87.4539 17.7265 86.1922 17.7265H80.1596V25.0208ZM80.1596 13.1921H85.8373C87.0728 13.1921 87.9928 12.8899 88.5973 12.2853C89.2282 11.6544 89.5436 10.8527 89.5436 9.88013C89.5436 8.90756 89.2282 8.13213 88.5973 7.55384C87.9928 6.94926 87.0728 6.64698 85.8373 6.64698H80.1596V13.1921Z" fill="black"/>
<path d="M101.818 29.6339C101.555 29.6339 101.332 29.5419 101.148 29.3579C100.964 29.1739 100.872 28.9374 100.872 28.6482V10.1167C100.872 9.85385 100.964 9.63042 101.148 9.44642C101.332 9.23613 101.555 9.13099 101.818 9.13099H105.682C105.945 9.13099 106.169 9.23613 106.353 9.44642C106.563 9.63042 106.668 9.85385 106.668 10.1167V11.6939C107.325 10.879 108.127 10.2481 109.073 9.80128C110.046 9.35442 111.163 9.13099 112.425 9.13099H114.12C114.383 9.13099 114.606 9.22299 114.79 9.40699C114.974 9.59099 115.066 9.82756 115.066 10.1167V13.5076C115.066 13.7967 114.974 14.0333 114.79 14.2173C114.606 14.4013 114.383 14.4933 114.12 14.4933H110.65C109.494 14.4933 108.587 14.8219 107.93 15.479C107.273 16.1099 106.944 17.0167 106.944 18.1996V28.6482C106.944 28.9374 106.852 29.1739 106.668 29.3579C106.484 29.5419 106.247 29.6339 105.958 29.6339H101.818Z" fill="black"/>
<path d="M123.693 30.0282C122.299 30.0282 121.051 29.7654 119.947 29.2397C118.843 28.6876 117.962 27.9516 117.305 27.0316C116.648 26.1116 116.319 25.0865 116.319 23.9562C116.319 22.0899 117.069 20.6179 118.567 19.5402C120.091 18.4625 122.089 17.7265 124.56 17.3322L129.725 16.583V15.8733C129.725 14.8482 129.489 14.0596 129.015 13.5076C128.542 12.9556 127.714 12.6796 126.531 12.6796C125.664 12.6796 124.967 12.8504 124.442 13.1921C123.916 13.5339 123.509 13.9807 123.219 14.5327C123.009 14.8744 122.707 15.0453 122.313 15.0453H118.567C118.278 15.0453 118.054 14.9664 117.897 14.8087C117.739 14.6247 117.673 14.4144 117.699 14.1779C117.699 13.731 117.87 13.2053 118.212 12.6007C118.554 11.9961 119.079 11.4047 119.789 10.8264C120.499 10.2219 121.406 9.72242 122.51 9.32813C123.614 8.93385 124.967 8.7367 126.571 8.7367C128.227 8.7367 129.646 8.93385 130.829 9.32813C132.012 9.72242 132.958 10.2744 133.668 10.9841C134.378 11.6939 134.904 12.5219 135.245 13.4682C135.587 14.3882 135.758 15.387 135.758 16.4647V28.6482C135.758 28.9374 135.666 29.1739 135.482 29.3579C135.298 29.5419 135.061 29.6339 134.772 29.6339H130.908C130.645 29.6339 130.422 29.5419 130.238 29.3579C130.054 29.1739 129.962 28.9374 129.962 28.6482V27.1894C129.62 27.6888 129.16 28.1619 128.582 28.6088C128.003 29.0294 127.307 29.3711 126.492 29.6339C125.703 29.8968 124.77 30.0282 123.693 30.0282ZM125.27 25.9276C126.137 25.9276 126.913 25.7436 127.596 25.3756C128.279 25.0076 128.818 24.4425 129.213 23.6802C129.607 22.9179 129.804 21.9585 129.804 20.8019V20.1316L126.137 20.723C124.718 20.9596 123.679 21.3145 123.022 21.7876C122.365 22.2608 122.037 22.8391 122.037 23.5225C122.037 24.0219 122.181 24.4556 122.47 24.8236C122.786 25.1916 123.193 25.4676 123.693 25.6516C124.192 25.8356 124.718 25.9276 125.27 25.9276Z" fill="black"/>
<path d="M141.478 29.6339C141.215 29.6339 140.992 29.5419 140.808 29.3579C140.624 29.1739 140.532 28.9374 140.532 28.6482V10.1167C140.532 9.82756 140.624 9.59099 140.808 9.40699C140.992 9.22299 141.215 9.13099 141.478 9.13099H145.342C145.631 9.13099 145.868 9.22299 146.052 9.40699C146.236 9.59099 146.328 9.82756 146.328 10.1167V11.6544C147.011 10.8133 147.892 10.1167 148.97 9.56471C150.047 9.0127 151.362 8.7367 152.912 8.7367C154.463 8.7367 155.817 9.09156 156.974 9.80128C158.156 10.4847 159.076 11.4967 159.734 12.8373C160.417 14.1516 160.759 15.755 160.759 17.6476V28.6482C160.759 28.9374 160.654 29.1739 160.443 29.3579C160.259 29.5419 160.036 29.6339 159.773 29.6339H155.594C155.304 29.6339 155.068 29.5419 154.884 29.3579C154.7 29.1739 154.608 28.9374 154.608 28.6482V17.8842C154.608 16.491 154.266 15.4133 153.583 14.651C152.926 13.8624 151.953 13.4682 150.665 13.4682C149.43 13.4682 148.444 13.8624 147.708 14.651C146.972 15.4133 146.604 16.491 146.604 17.8842V28.6482C146.604 28.9374 146.512 29.1739 146.328 29.3579C146.144 29.5419 145.92 29.6339 145.658 29.6339H141.478Z" fill="black"/>
<path d="M173.093 30.0282C171.778 30.0282 170.609 29.8179 169.583 29.3974C168.558 28.9505 167.691 28.3196 166.981 27.5048C166.271 26.6636 165.732 25.6779 165.364 24.5476C164.996 23.3911 164.773 22.1162 164.694 20.723C164.668 20.2236 164.655 19.7767 164.655 19.3825C164.655 18.9619 164.668 18.515 164.694 18.0419C164.747 16.675 164.957 15.4264 165.325 14.2962C165.719 13.1659 166.258 12.1933 166.942 11.3784C167.651 10.5373 168.519 9.89328 169.544 9.44642C170.595 8.97327 171.778 8.7367 173.093 8.7367C174.459 8.7367 175.629 8.97327 176.602 9.44642C177.574 9.89328 178.376 10.4847 179.007 11.2207V2.62524C179.007 2.3361 179.099 2.09953 179.283 1.91553C179.467 1.73153 179.703 1.63952 179.993 1.63952H184.054C184.317 1.63952 184.54 1.73153 184.724 1.91553C184.908 2.09953 185 2.3361 185 2.62524V28.6482C185 28.9374 184.908 29.1739 184.724 29.3579C184.54 29.5419 184.317 29.6339 184.054 29.6339H180.269C180.006 29.6339 179.782 29.5419 179.598 29.3579C179.414 29.1739 179.322 28.9374 179.322 28.6482V27.3076C178.665 28.0962 177.837 28.7534 176.838 29.2791C175.839 29.7785 174.591 30.0282 173.093 30.0282ZM174.906 25.2968C175.879 25.2968 176.654 25.0733 177.233 24.6265C177.837 24.1796 178.271 23.6145 178.534 22.931C178.823 22.2476 178.981 21.5116 179.007 20.723C179.059 20.2236 179.086 19.7242 179.086 19.2248C179.086 18.7253 179.059 18.239 179.007 17.7659C178.981 17.0299 178.823 16.3465 178.534 15.7156C178.245 15.0584 177.798 14.5196 177.193 14.099C176.615 13.6784 175.853 13.4682 174.906 13.4682C173.907 13.4682 173.119 13.6916 172.541 14.1384C171.962 14.559 171.542 15.1242 171.279 15.8339C171.042 16.5436 170.898 17.319 170.845 18.1602C170.766 18.975 170.766 19.7899 170.845 20.6048C170.898 21.4459 171.042 22.2213 171.279 22.931C171.542 23.6408 171.962 24.2191 172.541 24.6659C173.119 25.0865 173.907 25.2968 174.906 25.2968Z" fill="black"/>
</svg>

<svg xmlns="http://www.w3.org/2000/svg" fill="none" viewBox="0 0 185 39"><path fill="#000" d="M1 29.6a1 1 0 0 1-.7-.2 1 1 0 0 1-.3-.8V3c0-.3 0-.5.3-.7.2-.2.4-.3.7-.3h11.7c2.2 0 4 .3 5.4 1 1.4.6 2.4 1.5 3 2.7.7 1.1 1 2.5 1 4 0 1-.1 1.8-.5 2.6a6.2 6.2 0 0 1-2.8 2.9c1 .4 2 1.2 2.7 2.3.8 1.1 1.2 2.4 1.2 3.9 0 1.6-.4 3.1-1 4.3a7.3 7.3 0 0 1-3.4 3c-1.4.6-3.2 1-5.2 1H1ZM6.3 25h6c1.3 0 2.3-.3 3-1 .6-.8 1-1.6 1-2.6s-.4-2-1.1-2.6c-.7-.7-1.6-1-2.9-1h-6V25Zm0-11.8h5.6c1.3 0 2.2-.3 2.8-1 .6-.5 1-1.3 1-2.3a3 3 0 0 0-1-2.3c-.6-.7-1.5-1-2.8-1H6.3v6.6ZM28.1 29.6a1 1 0 0 1-.6-.2 1 1 0 0 1-.3-.8V10.1c0-.3 0-.5.3-.7.1-.2.4-.3.6-.3h4c.3 0 .5.1.7.3.2.2.2.4.2.7v18.5c0 .3 0 .6-.2.8a1 1 0 0 1-.7.2h-4ZM28 6a1 1 0 0 1-.7-.3 1 1 0 0 1-.2-.7V1.8c0-.3 0-.5.2-.7.2-.2.4-.3.7-.3h4.1c.3 0 .6.1.8.3.2.2.3.4.3.7V5c0 .3-.1.5-.3.7a1 1 0 0 1-.8.3H28ZM47.6 38.3c-2 0-3.5-.3-4.8-.8a9.1 9.1 0 0 1-3.1-1.8 7 7 0 0 1-1.6-2.2c-.3-.7-.5-1.2-.5-1.6 0-.3 0-.5.3-.7.2-.2.4-.3.7-.3h4.2c.2 0 .4 0 .6.2.2 0 .3.3.4.6l.6 1 1 .9c.5.2 1.2.3 2 .3 1 0 1.7-.1 2.3-.4.6-.2 1-.7 1.3-1.3.4-.6.5-1.5.5-2.6V27c-.6.7-1.4 1.2-2.4 1.7a9.7 9.7 0 0 1-7.1 0 7 7 0 0 1-2.6-1.8 8.7 8.7 0 0 1-1.6-3 14 14 0 0 1-.6-3.8v-2c0-1.4.3-2.7.6-3.8.4-1.1 1-2.1 1.6-3 .7-.8 1.6-1.4 2.6-1.9 1-.4 2.2-.7 3.6-.7a7.7 7.7 0 0 1 6.2 3V10c0-.2.1-.5.3-.7.2-.2.4-.3.7-.3h3.8c.3 0 .5.1.7.3.2.2.3.5.3.7v19c0 2-.3 3.6-1 5a7.4 7.4 0 0 1-3.5 3.1c-1.4.7-3.3 1.1-5.5 1.1Zm-.2-13.6c1 0 1.7-.2 2.3-.6.6-.4 1-1 1.3-1.6a6 6 0 0 0 .5-2.2 14.4 14.4 0 0 0 0-2.5c0-.7-.2-1.4-.5-2-.2-.7-.7-1.3-1.3-1.7-.6-.4-1.3-.6-2.3-.6-1 0-1.8.2-2.3.6-.6.5-1 1-1.3 1.7-.3.7-.4 1.5-.5 2.4V20c0 .9.2 1.7.5 2.4s.7 1.3 1.3 1.7a4 4 0 0 0 2.3.6ZM63.6 29.6a1 1 0 0 1-.7-.2 1 1 0 0 1-.3-.8V10.1c0-.3.1-.5.3-.7.2-.2.4-.3.7-.3h4c.2 0 .5.1.6.3.2.2.3.4.3.7v18.5c0 .3 0 .6-.3.8a1 1 0 0 1-.7.2h-4ZM63.5 6a1 1 0 0 1-.7-.3 1 1 0 0 1-.3-.7V1.8c0-.3.1-.5.3-.7.2-.2.4-.3.7-.3h4.1c.3 0 .5.1.7.3.2.2.3.4.3.7V5c0 .3 0 .5-.3.7a1 1 0 0 1-.7.3h-4.1ZM74.9 29.6a1 1 0 0 1-.7-.2 1 1 0 0 1-.3-.8V3c0-.3 0-.5.3-.7.2-.2.4-.3.7-.3h11.7c2.2 0 4 .3 5.3 1 1.4.6 2.5 1.5 3.1 2.7.7 1.1 1 2.5 1 4 0 1-.1 1.8-.5 2.6a6.2 6.2 0 0 1-2.8 2.9c1 .4 2 1.2 2.7 2.3.8 1.1 1.2 2.4 1.2 3.9 0 1.6-.4 3.1-1.1 4.3a7.3 7.3 0 0 1-3.3 3c-1.4.6-3.2 1-5.3 1H75Zm5.3-4.6h6c1.3 0 2.3-.3 3-1 .6-.8.9-1.6.9-2.6s-.3-2-1-2.6c-.7-.7-1.6-1-3-1h-6V25Zm0-11.8h5.6c1.3 0 2.2-.3 2.8-1 .6-.5 1-1.3 1-2.3a3 3 0 0 0-1-2.3c-.6-.7-1.5-1-2.8-1h-5.6v6.6ZM101.8 29.6a1 1 0 0 1-.7-.2 1 1 0 0 1-.2-.8V10.1c0-.2 0-.5.2-.7.2-.2.5-.3.7-.3h3.9c.2 0 .5.1.7.3.2.2.3.5.3.7v1.6c.6-.8 1.4-1.5 2.4-1.9 1-.4 2-.7 3.3-.7h1.7c.3 0 .5.1.7.3.2.2.3.4.3.7v3.4c0 .3-.1.5-.3.7a1 1 0 0 1-.7.3h-3.4c-1.2 0-2.1.3-2.8 1-.6.6-1 1.5-1 2.7v10.4c0 .3 0 .6-.2.8a1 1 0 0 1-.7.2h-4.2ZM123.7 30c-1.4 0-2.6-.2-3.8-.8a7 7 0 0 1-2.6-2.2c-.7-.9-1-2-1-3 0-2 .8-3.4 2.3-4.5 1.5-1 3.5-1.8 6-2.2l5.1-.7v-.7c0-1-.2-1.8-.7-2.4-.5-.5-1.3-.8-2.5-.8-.8 0-1.5.2-2 .5-.6.3-1 .8-1.3 1.3a1 1 0 0 1-.9.5h-3.7c-.3 0-.5 0-.7-.2a.8.8 0 0 1-.2-.6c0-.5.2-1 .5-1.6.4-.6.9-1.2 1.6-1.8.7-.6 1.6-1 2.7-1.5 1.1-.4 2.5-.6 4-.6 1.7 0 3.1.2 4.3.6a6.7 6.7 0 0 1 4.4 4.1c.4 1 .6 2 .6 3v12.2c0 .3-.1.6-.3.8a1 1 0 0 1-.7.2h-3.9a1 1 0 0 1-.7-.2 1 1 0 0 1-.2-.8v-1.4a6.4 6.4 0 0 1-3.5 2.4c-.8.3-1.7.4-2.8.4Zm1.6-4c.8 0 1.6-.3 2.3-.6.7-.4 1.2-1 1.6-1.7.4-.8.6-1.7.6-2.9v-.7l-3.7.6c-1.4.3-2.4.6-3 1-.7.6-1 1.1-1 1.8 0 .5 0 1 .4 1.3.3.4.7.7 1.2.9l1.6.2ZM141.5 29.6a1 1 0 0 1-.7-.2 1 1 0 0 1-.3-.8V10.1c0-.3.1-.5.3-.7.2-.2.4-.3.7-.3h3.8c.3 0 .6.1.8.3l.2.7v1.6a8.1 8.1 0 0 1 6.6-3c1.6 0 3 .4 4 1.1a7 7 0 0 1 2.8 3c.7 1.4 1 3 1 4.8v11c0 .3 0 .6-.3.8a1 1 0 0 1-.6.2h-4.2a1 1 0 0 1-.7-.2 1 1 0 0 1-.3-.8V18c0-1.4-.3-2.5-1-3.2-.7-.8-1.6-1.2-3-1.2-1.2 0-2.2.4-2.9 1.2-.7.7-1.1 1.8-1.1 3.2v10.7c0 .3 0 .6-.3.8a1 1 0 0 1-.6.2h-4.2ZM173 30c-1.2 0-2.4-.2-3.4-.6-1-.4-2-1-2.6-1.9a8.7 8.7 0 0 1-1.6-3 15.5 15.5 0 0 1-.7-5.1V18c0-1.3.3-2.6.6-3.7.4-1.1 1-2.1 1.6-3a7 7 0 0 1 2.6-1.9c1-.4 2.3-.7 3.6-.7a8 8 0 0 1 3.5.7 7 7 0 0 1 2.4 1.8V2.6c0-.3.1-.5.3-.7.2-.2.4-.3.7-.3h4c.3 0 .5.1.7.3.2.2.3.4.3.7v26c0 .3 0 .6-.3.8a1 1 0 0 1-.6.2h-3.8a1 1 0 0 1-.7-.2 1 1 0 0 1-.3-.8v-1.3a8 8 0 0 1-2.5 2c-1 .5-2.2.7-3.7.7Zm2-4.7c.9 0 1.7-.2 2.2-.7.6-.4 1-1 1.3-1.7.3-.7.5-1.4.5-2.2a14.5 14.5 0 0 0 0-3c0-.7-.2-1.4-.5-2-.3-.6-.7-1.2-1.3-1.6-.6-.4-1.3-.6-2.3-.6-1 0-1.8.2-2.4.6-.5.5-1 1-1.2 1.7a12.6 12.6 0 0 0 0 7.1c.2.7.7 1.3 1.2 1.8a4 4 0 0 0 2.4.6Z"/></svg>
